**kern	**dynam
*clefC3	*
*k[b-e-]	*
*B-:	*
*M6/8	*
!LO:TX:a:t=Presto	!
8B-	f
=1	=1
4B-	.
8d	.
4d	.
8f	.
=2	=2
4f	.
8b-	.
4b-	.
8r	.
=3	=3
4r	.
8r	.
4r	.
8b-	p
=4	=4
(>8aL	.
8b-	.
8ccJ)	.
4b-	.
8B-	f
=5	=5
4B-	.
8d	.
4d	.
8f	.
=6	=6
4f	.
8b-	.
4b-	.
8r	.
=7	=7
4r	.
8r	.
4r	.
8a	p
=8	=8
!!linebreak:original
(>8aL	.
8b-	.
8ccJ)	.
4b-	.
8r	.
=9	=9
4r	.
8b-'	f
(>8aL	.
8fJ)	.
8r	.
=10	=10
4r	.
8g'	.
(>8fL	.
8aJ)	.
8r	.
=11	=11
4.b-	.
4.a	.
=12	=12
4g	.
8c	.
4f	.
8r	.
=13	=13
4.g	.
8aL	.
8g	.
8fJ	.
=14	=14
8enL	.
8c	.
8eJ	.
4f	.
8r	.
=15	=15
2.r	.
=16	=16
2.r	.
=17	=17
8gL	.
8g	.
8gJ	.
8aL	.
8b-J	.
=18	=18
!!linebreak:original
8gL	.
8g	.
8gJ	.
8aL	.
8a	.
8aJ	.
=19	=19
8gL	.
8g	.
8gJ	.
8aL	.
8a	.
8aJ	.
=20	=20
8gL	.
8g	.
8cJ	.
8f	.
8r	.
8A	.
=21	=21
8B-'L	.
(<8B-	.
8cJ)	.
=22	=22
4B-	.
8G	.
8A	.
8r	.
(>8c	p
=23	=23
8f)	.
8r	.
8c	.
4f	.
(>8c	.
=24	=24
4f)	.
8r	.
4r	.
=:|!|:	=:|!|:
8r	.
=25	=25
4r	.
8r	.
4r	.
8Bn	f
=26	=26
!!linebreak:original
(>8BnL	.
8c	.
8dJ)	.
4c	.
8r	.
=27	=27
4r	.
8r	.
4r	.
8A	.
=28	=28
(<8AL	.
8B-	.
8cJ)	.
4B-	.
8B-	.
=29	=29
(<8B-L	.
8c)	.
8c'J	.
(>8cL	.
8d)	.
8d'J	.
=30	=30
8dL	.
8e-	.
8e-'J	.
(>8e-L	.
8f)	.
8c'J	.
=31	=31
4d	.
8r	.
4r	.
8b-	p
=32	=32
(>8aL	.
8b-	.
8ccJ)	.
8qqcc/	.
4b-	.
8r	.
=33	=33
4r	.
8r	.
4r	.
8dd	.
=34	=34
!!linebreak:original
(>8ddL	.
8cc	.
8b-J)	.
4a	.
8r	.
=35	=35
4r	.
8a'	pp
(>8b-L	.
8aJ)	.
8r	.
=36	=36
4r	.
8a'	.
(>8b-L	.
8a)	.
8fJ	ff
=37	=37
4b-	.
8f	.
4d-X	.
8B-	.
=38	=38
(>8g-XL	.
8f)	.
8en'J	.
4f	.
8d-X	p
=39	=39
4c	.
8d-X	.
4c	.
8d-	.
=40	=40
4c	.
8r	.
4r	.
8B-	f
=41	=41
4B-	.
8d	.
4d	.
8f	.
=42	=42
4f	.
8b-	.
4b-	.
8r	.
=43	=43
!!linebreak:original
4r	.
8r	.
4r	.
8b-	p
=44	=44
(>8aL	.
8b-	.
8ccJ)	.
4b-	.
8B-	f
=45	=45
4B-	.
8e-	.
4e-	.
8g	.
=46	=46
4g	.
8b-	.
4b-	.
8r	.
=47	=47
4r	.
8r	.
4r	.
8b-	p
=48	=48
(>8aL	.
8b-	.
8ccJ)	.
4b-	.
8r	.
=49	=49
4.g	f
4.f	.
=50	=50
4.f	.
4.e-	.
=51	=51
4.ee-	.
4.dd	.
=52	=52
4cc	.
8cc	.
4b-	.
8r	.
=53	=53
2.r	.
=54	=54
2.r	.
=55	=55
!!linebreak:original
8cL	.
8c	.
8cJ	.
8dL	.
8d	.
8dJ	.
=56	=56
8cL	.
8c	.
8cJ	.
8dL	.
8d	.
8dJ	.
=57	=57
8cL	.
8c	.
8cJ	.
8dL	.
8d	.
8dJ	.
=58	=58
8cL	.
8c	.
8FJ	.
4B-	.
8f	.
=59	=59
8g'L	.
(>8g	.
8aJ)	.
(>8b-L	.
8dd)	.
8d'J	.
=60	=60
4e-	.
8c	.
8d	.
8r	.
(<8F	p
=61	=61
8B-)	.
8r	.
(<8F	.
4B-)	.
(<8F	.
=62	=62
4B-)	.
8r	.
4r	.
=:|!	=:|!
*-	*-
!!!RDF**kern: > = above
!!!RDF**kern: < = below
